X:15
T:Polska ur Petter Dufvas notbok (Ma6-15)
R:Polska
O:Verkelbäck, Småland
B:Petter Dufvas notbok
S:Petter Dufva
N:Smus Ma6 bild 17
M:3/4
L:1/8
K:G
fa/f/ d2c2|Bd/B/ A2 c2|BA/G/ FG AB|B/A/G/F/ GD B,G,|B/A/G/F/ G2G,2:|
|:BG A/B/A/G/ FD|BG A/B/A/G/ FD|G,G, B,B, DD|d2 g2 b2|G,G, B,B, DD|d2 g2 b2|
AB cA/c/ BG|F/G/A/F/ G2 G,2:|

